media/img/Vector.svg

<svg fill="none" height="16" viewBox="0 0 16 16" width="16" xmlns="http://www.w3.org/2000/svg"><path d="m8.88787 15.1375 6.25003-6.25001c.1138-.11888.203-.25906.2625-.4125.125-.30433.125-.64568 0-.95-.0595-.15344-.1487-.29362-.2625-.4125l-6.25003-6.250002c-.11654-.116548-.25491-.208999-.40718-.272075-.15228-.063075-.31549-.09554-.48032-.09554-.33287 0-.65212.132235-.8875.367615-.23538.235382-.36761.554622-.36761.887502 0 .33287.13223.65212.36761.8875l4.12503 4.1125h-9.48753c-.33152 0-.64946.13169-.883881.36611-.234419.23443-.366115.55237-.366115.88389s.131696.64946.366116.88388.55236.36612.88388.36612h9.48753l-4.12503 4.11251c-.11716.1162-.21015.2544-.27361.4068-.06346.1523-.09613.3157-.09613.4807s.03267.3284.09613.4807.15645.2906.27361.4068c.11621.1171.25446.2101.40678.2736.15233.0635.31571.0961.48072.0961.16502 0 .3284-.0326.48072-.0961.15233-.0635.29058-.1565.40678-.2736z" fill="#333"/></svg>

<svg width="16" height="16" viewBox="0 0 16 16" fill="none" xmlns="http://www.w3.org/2000/svg">
<path d="M8.88787 15.1375L15.1379 8.88749C15.2517 8.76861 15.3409 8.62843 15.4004 8.47499C15.5254 8.17066 15.5254 7.82931 15.4004 7.52499C15.3409 7.37155 15.2517 7.23137 15.1379 7.11249L8.88787 0.862488C8.77133 0.74594 8.63296 0.653489 8.48069 0.590413C8.32841 0.527338 8.1652 0.494873 8.00037 0.494873C7.6675 0.494873 7.34825 0.627108 7.11287 0.862488C6.87749 1.09787 6.74526 1.41711 6.74526 1.74999C6.74526 2.08286 6.87749 2.40211 7.11287 2.63749L11.2379 6.74999L1.75037 6.74999C1.41885 6.74999 1.10091 6.88168 0.866489 7.1161C0.63207 7.35053 0.500374 7.66847 0.500374 7.99999C0.500374 8.33151 0.63207 8.64945 0.86649 8.88387C1.10091 9.11829 1.41885 9.24999 1.75037 9.24999L11.2379 9.24999L7.11287 13.3625C6.99571 13.4787 6.90272 13.6169 6.83926 13.7693C6.7758 13.9216 6.74313 14.085 6.74313 14.25C6.74313 14.415 6.7758 14.5784 6.83926 14.7307C6.90272 14.883 6.99571 15.0213 7.11287 15.1375C7.22908 15.2546 7.36733 15.3476 7.51965 15.4111C7.67198 15.4746 7.83536 15.5072 8.00037 15.5072C8.16539 15.5072 8.32877 15.4746 8.48109 15.4111C8.63342 15.3476 8.77167 15.2546 8.88787 15.1375Z" fill="#333333"/>
</svg>
